X: 101
T:Lady Bothwell's Lament
S:Graham, Songs of Scotland
G:song from the early 18th century
M:3/4
L:1/16
Q:1/4=80
K:F
c2     A2`(GF)| F6         A2  G2`(FD)|C6 \
d2     c2`(BA)|(B2A2) (G2``F2) G2`(Ac)|d6
c2 ({B}A2)(GF)| F6        (GA) D3```F |C6 \
d2 ({d}c2)(BA)|(B2A2) (G2``F2) A3```c |d6||
c2    (cB)(AB)| c6         d2 (cB)(AB)|c6 \
c2     d2``f2 | f6         f2  d3```c |c6
f2    (cA)(GF)| D6         F2 (CD)(FA)|d6 \
c2    (cA)(GF)| F3`G  (AG)(Ac) G3```F |F6|]

Here is an example from China:

